X:4
T: WAS KLINGET UND SINGET
N: B0492
O: Europa, Mitteleuropa, Deutschland
R: Abschieds - Lied
M: 6/8
L: 1/16
K: C
C2 | C3EE2E3GG2 | G4c2c4
c2 | c4G2e3de2 | c4G2G4
E2 | E3DE2G4D2 | F6E4
E2 | E3DE2G4D2 | F6E2z2

@@@ Tune index: 2222
